assets/logos/cielo.svg

<svg width="80" height="80" viewBox="0 0 80 80" fill="none" xmlns="http://www.w3.org/2000/svg">
<path d="M51.1909 29.2065C50.353 29.2065 49.6738 29.8857 49.6738 30.7236V49.0478C49.6738 49.8858 50.353 50.5649 51.1909 50.5649C52.0289 50.5649 52.708 49.8858 52.708 49.0478V30.7257C52.708 29.8878 52.0289 29.2086 51.1909 29.2086" fill="#59636E"/>
<path d="M26.5476 34.1486C25.7097 34.1486 25.0305 34.8277 25.0305 35.6656V49.0478C25.0305 49.8858 25.7097 50.5649 26.5476 50.5649C27.3856 50.5649 28.0647 49.8858 28.0647 49.0478V35.6677C28.0647 34.8298 27.3856 34.1506 26.5476 34.1506" fill="#59636E"/>
<path d="M28.4927 30.7277C28.4927 31.8016 27.6213 32.6333 26.5474 32.6333C25.4734 32.6333 24.6021 31.8016 24.6021 30.7277C24.6021 29.6537 25.4734 28.7823 26.5474 28.7823C27.6213 28.7823 28.4927 29.6537 28.4927 30.7277Z" fill="#00ADF0"/>
<path d="M38.9811 36.7314C41.357 36.7314 43.3881 38.2025 44.2177 40.2817C44.3724 40.6683 44.0882 41.0883 43.6723 41.0883H34.2919C33.876 41.0883 33.5918 40.6683 33.7465 40.2817C34.5761 38.2004 36.6072 36.7314 38.9831 36.7314M46.9322 38.9903C45.4736 35.6928 42.0236 33.3712 38.0867 33.7662C33.9366 34.182 30.6538 37.5756 30.3591 41.7361C29.9997 46.7973 33.9993 51.0163 38.9831 51.0163C41.3737 51.0163 43.1332 50.0843 44.2282 49.2526C44.993 48.6717 45.0181 47.5307 44.2888 46.908C43.7517 46.4483 42.9639 46.4211 42.3997 46.8495C41.637 47.4283 40.3853 48.0866 38.7178 48.0009C36.4714 47.886 34.5531 46.4587 33.7507 44.4631C33.5939 44.0744 33.8739 43.6502 34.294 43.6502H44.83C46.2865 43.6502 47.4003 42.4738 47.4003 41.0925C47.4003 40.336 47.1516 39.496 46.9301 38.9945" fill="#59636E"/>
<path d="M63.6264 48.005C60.5128 48.005 57.9906 45.4807 57.9906 42.3692C57.9906 40.9545 58.513 39.6631 59.3739 38.6726L57.0857 36.7146C55.7734 38.2317 54.9814 40.2064 54.9814 42.3692C54.9814 47.1441 58.8536 51.0162 63.6284 51.0162C66.2739 51.0162 68.6436 49.8272 70.2297 47.9549L67.9415 45.9989C66.9071 47.2277 65.3608 48.0071 63.6284 48.0071" fill="#59636E"/>
<path d="M63.6265 33.7223C61.0123 33.7223 58.6698 34.8821 57.0837 36.7147L59.3719 38.6727C60.4063 37.4858 61.9276 36.7335 63.6244 36.7335C66.7379 36.7335 69.2602 39.2578 69.2602 42.3693C69.2602 43.7506 68.7607 45.0169 67.9353 45.9969L70.2235 47.9529C71.5003 46.4462 72.2693 44.4966 72.2693 42.3672C72.2693 37.5923 68.3971 33.7202 63.6223 33.7202" fill="#00ADF0"/>
<path d="M22.2346 46.9164C21.6934 46.4545 20.8993 46.4169 20.333 46.8474C19.3843 47.5725 18.2015 48.003 16.9143 48.003C13.7276 48.003 11.1594 45.3596 11.2827 42.1478C11.3914 39.3037 13.5541 37.0114 16.3877 36.7544C17.8693 36.6206 19.2443 37.0595 20.3184 37.8765C20.8867 38.3091 21.6766 38.2944 22.2179 37.8305C22.9409 37.212 22.92 36.0773 22.1635 35.4985C20.5628 34.2739 18.5233 33.5948 16.3229 33.7411C11.9744 34.0315 8.49091 37.5819 8.27985 41.9367C8.03745 46.908 11.9974 51.0142 16.9164 51.0142C18.9016 51.0142 20.73 50.3455 22.1886 49.2192C22.9325 48.6466 22.9471 47.5265 22.2346 46.9164Z" fill="#59636E"/>
</svg>

<svg xmlns="http://www.w3.org/2000/svg" width="80" height="80" fill="none" viewBox="0 0 80 80"><path fill="#59636e" d="M51.19 29.207c-.837 0-1.516.679-1.516 1.517v18.324a1.517 1.517 0 1 0 3.034 0V30.726c0-.838-.68-1.517-1.517-1.517m-24.643 4.94c-.838 0-1.517.679-1.517 1.517v13.382a1.517 1.517 0 1 0 3.034 0v-13.38c0-.838-.68-1.517-1.517-1.517"/><path fill="#00adf0" d="M28.493 30.728c0 1.074-.872 1.905-1.946 1.905s-1.945-.831-1.945-1.905a1.946 1.946 0 0 1 3.89 0"/><path fill="#59636e" d="M38.981 36.731a5.64 5.64 0 0 1 5.237 3.55.588.588 0 0 1-.546.807h-9.38c-.416 0-.7-.42-.546-.806a5.64 5.64 0 0 1 5.237-3.55m7.95 2.258c-1.46-3.297-4.91-5.619-8.846-5.224a8.65 8.65 0 0 0 .896 17.25 8.6 8.6 0 0 0 5.245-1.763c.765-.581.79-1.722.06-2.345a1.51 1.51 0 0 0-1.888-.059c-.763.58-2.015 1.238-3.682 1.152a5.68 5.68 0 0 1-4.967-3.538.59.59 0 0 1 .543-.813H44.83a2.56 2.56 0 0 0 2.57-2.557c0-.757-.248-1.597-.47-2.099m16.696 9.011a5.636 5.636 0 0 1-4.252-9.332l-2.288-1.958a8.648 8.648 0 1 0 13.144 11.24l-2.288-1.956a5.62 5.62 0 0 1-4.314 2.008"/><path fill="#00adf0" d="M63.627 33.722a8.63 8.63 0 0 0-6.543 2.993l2.288 1.958a5.636 5.636 0 0 1 8.563 7.324l2.288 1.956a8.648 8.648 0 0 0-6.601-14.233"/><path fill="#59636e" d="M22.235 46.916a1.52 1.52 0 0 0-1.902-.069 5.635 5.635 0 0 1-9.05-4.7 5.597 5.597 0 0 1 5.105-5.393 5.62 5.62 0 0 1 3.93 1.123 1.51 1.51 0 0 0 1.9-.047 1.503 1.503 0 0 0-.055-2.331 8.62 8.62 0 0 0-5.84-1.758c-4.349.29-7.832 3.84-8.043 8.196a8.646 8.646 0 0 0 8.636 9.077 8.6 8.6 0 0 0 5.273-1.795c.744-.572.758-1.693.046-2.303"/></svg>
